X:2397
T:Grouse on the Hill
O:england
M:6/8
L:1/8
K:Bm
GEF G2 (A | B)ec dBA | BAF GFG | AFD FGA |\
G>EF (G2A) | Bee fed | BdB AFB | EFE E3 :|:\
(g2e) fed | B(ec) dBA | gfg afd | e{g}fe e2 (f |\
g2)e fed | B(ec) dBA | BdB AFB | EFE {F} E3) :|


